Numix-Light/16/status/indicator-keyboard-De-1.svg

<?xml version="1.0" encoding="UTF-8" standalone="no"?>
<svg
   xmlns:dc="http://purl.org/dc/elements/1.1/"
   xmlns:cc="http://creativecommons.org/ns#"
   xmlns:rdf="http://www.w3.org/1999/02/22-rdf-syntax-ns#"
   xmlns:svg="http://www.w3.org/2000/svg"
   xmlns="http://www.w3.org/2000/svg"
   xmlns:sodipodi="http://sodipodi.sourceforge.net/DTD/sodipodi-0.dtd"
   xmlns:inkscape="http://www.inkscape.org/namespaces/inkscape"
   viewBox="0 0 16 16"
   id="svg2"
   version="1.1"
   inkscape:version="0.91 r13725"
   sodipodi:docname="indicator-keyboard-De-1.svg">
  <metadata
     id="metadata14">
    <rdf:RDF>
      <cc:Work
         rdf:about="">
        <dc:format>image/svg+xml</dc:format>
        <dc:type
           rdf:resource="http://purl.org/dc/dcmitype/StillImage" />
      </cc:Work>
    </rdf:RDF>
  </metadata>
  <defs
     id="defs12" />
  <sodipodi:namedview
     pagecolor="#ffffff"
     bordercolor="#666666"
     borderopacity="1"
     objecttolerance="10"
     gridtolerance="10"
     guidetolerance="10"
     inkscape:pageopacity="0"
     inkscape:pageshadow="2"
     inkscape:window-width="640"
     inkscape:window-height="480"
     id="namedview10"
     showgrid="false"
     inkscape:zoom="14.75"
     inkscape:cx="8"
     inkscape:cy="8"
     inkscape:window-x="65"
     inkscape:window-y="24"
     inkscape:window-maximized="0"
     inkscape:current-layer="svg2" />
  <path
     style="fill:#353535;fill-opacity:1"
     d="M 1.5996094 0 C 0.71320937 2.9605947e-16 0 0.71320937 0 1.5996094 L 0 14.400391 C 2.9605947e-16 15.286791 0.71320937 16 1.5996094 16 L 14.400391 16 C 15.286791 16 16 15.286791 16 14.400391 L 16 1.5996094 C 16 0.71320937 15.286791 0 14.400391 0 L 1.5996094 0 z M 3.2675781 4.8046875 C 3.7715781 4.8046875 4.2342969 4.8719062 4.6542969 5.0039062 C 5.0742969 5.1359063 5.434375 5.3336562 5.734375 5.5976562 C 6.040375 5.8616562 6.2773125 6.1918906 6.4453125 6.5878906 C 6.6133125 6.9838906 6.6972656 7.4446562 6.6972656 7.9726562 C 6.6972656 8.5066563 6.6133125 8.9711875 6.4453125 9.3671875 C 6.2773125 9.7631875 6.040375 10.093422 5.734375 10.357422 C 5.434375 10.621422 5.0742969 10.819172 4.6542969 10.951172 C 4.2342969 11.083172 3.7715781 11.150391 3.2675781 11.150391 C 3.0155781 11.150391 2.7525625 11.135469 2.4765625 11.105469 C 2.2005625 11.081469 1.9580469 11.042281 1.7480469 10.988281 L 1.7480469 4.9765625 C 1.9580469 4.9165625 2.2005625 4.8736094 2.4765625 4.8496094 C 2.7525625 4.8196094 3.0155781 4.8046875 3.2675781 4.8046875 z M 3.3398438 5.3359375 C 3.0158437 5.3359375 2.7789063 5.3452812 2.6289062 5.3632812 C 2.4849062 5.3812812 2.395375 5.3924375 2.359375 5.3984375 L 2.359375 10.556641 C 2.395375 10.562641 2.4849063 10.573797 2.6289062 10.591797 C 2.7789063 10.609797 3.0158437 10.619141 3.3398438 10.619141 C 3.7898437 10.619141 4.1835312 10.559453 4.5195312 10.439453 C 4.8555313 10.313453 5.1372344 10.136203 5.3652344 9.9082031 C 5.5932344 9.6802031 5.7649062 9.4040781 5.8789062 9.0800781 C 5.9929062 8.7500781 6.0488281 8.3806562 6.0488281 7.9726562 C 6.0488281 7.5646563 5.9929062 7.199 5.8789062 6.875 C 5.7649063 6.551 5.5932344 6.274875 5.3652344 6.046875 C 5.1372344 5.818875 4.8555312 5.6453906 4.5195312 5.5253906 C 4.1835313 5.3993906 3.7898438 5.3359375 3.3398438 5.3359375 z M 9.7773438 6.3359375 C 10.347344 6.3359375 10.800719 6.5205781 11.136719 6.8925781 C 11.478719 7.2645781 11.648438 7.8373281 11.648438 8.6113281 C 11.648438 8.6593281 11.646625 8.7078594 11.640625 8.7558594 C 11.640625 8.8038594 11.636859 8.848625 11.630859 8.890625 L 8.3632812 8.890625 C 8.3812813 9.460625 8.5231094 9.8990779 8.7871094 10.205078 C 9.0511094 10.511078 9.4708748 10.664062 10.046875 10.664062 C 10.364875 10.664062 10.616734 10.634219 10.802734 10.574219 C 10.988734 10.514219 11.124984 10.463875 11.208984 10.421875 L 11.316406 10.925781 C 11.232406 10.973781 11.073844 11.029703 10.839844 11.095703 C 10.611844 11.161703 10.341297 11.195312 10.029297 11.195312 C 9.6212967 11.195312 9.272375 11.135625 8.984375 11.015625 C 8.696375 10.895625 8.4594375 10.727719 8.2734375 10.511719 C 8.0874375 10.295719 7.9531406 10.040094 7.8691406 9.7460938 C 7.7851406 9.4460938 7.7421875 9.119625 7.7421875 8.765625 C 7.7421875 8.357625 7.8000625 8.003125 7.9140625 7.703125 C 8.0340625 7.397125 8.1870469 7.1415 8.3730469 6.9375 C 8.5650469 6.7335 8.7814844 6.5842812 9.0214844 6.4882812 C 9.2674844 6.3862812 9.5193437 6.3359375 9.7773438 6.3359375 z M 9.7851562 6.8574219 C 9.5751563 6.8574219 9.38675 6.8984219 9.21875 6.9824219 C 9.05675 7.0664219 8.9131094 7.1802188 8.7871094 7.3242188 C 8.6671094 7.4622187 8.5700469 7.6245469 8.4980469 7.8105469 C 8.4320469 7.9965469 8.3948125 8.1924844 8.3828125 8.3964844 L 11.046875 8.3964844 C 11.034875 7.9104844 10.919125 7.5317188 10.703125 7.2617188 C 10.487125 6.9917187 10.181156 6.8574219 9.7851562 6.8574219 z M 13.984375 8.8417969 L 14.251953 8.8417969 L 14.251953 12.896484 L 13.873047 12.896484 L 13.873047 9.421875 C 13.830147 9.468675 13.773325 9.5157063 13.703125 9.5664062 C 13.636825 9.6171062 13.560409 9.66805 13.474609 9.71875 C 13.388809 9.76555 13.298678 9.812575 13.205078 9.859375 C 13.111478 9.902275 13.017428 9.9375437 12.923828 9.9648438 L 12.8125 9.671875 C 13.0465 9.5899751 13.256153 9.4880812 13.439453 9.3632812 C 13.622753 9.2345813 13.804975 9.0601969 13.984375 8.8417969 z "
     id="path4" />
</svg>

<svg xmlns="http://www.w3.org/2000/svg" viewBox="0 0 16 16">
 <path d="m 1.6 0 c -0.886 0 -1.6 0.713 -1.6 1.6 l 0 12.801 c 0 0.886 0.713 1.6 1.6 1.6 l 12.801 0 c 0.886 0 1.6 -0.713 1.6 -1.6 l 0 -12.801 c 0 -0.886 -0.713 -1.6 -1.6 -1.6 l -12.801 0 z m 1.668 4.805 c 0.504 0 0.967 0.067 1.387 0.199 c 0.42 0.132 0.78 0.33 1.08 0.594 c 0.306 0.264 0.543 0.594 0.711 0.99 c 0.168 0.396 0.252 0.857 0.252 1.385 c 0 0.534 -0.084 0.999 -0.252 1.395 c -0.168 0.396 -0.405 0.726 -0.711 0.99 c -0.3 0.264 -0.66 0.462 -1.08 0.594 c -0.42 0.132 -0.883 0.199 -1.387 0.199 c -0.252 0 -0.515 -0.015 -0.791 -0.045 c -0.276 -0.024 -0.519 -0.063 -0.729 -0.117 l 0 -6.01 c 0.21 -0.06 0.453 -0.103 0.729 -0.127 c 0.276 -0.03 0.539 -0.045 0.791 -0.045 z m 0.072 0.531 c -0.324 0 -0.561 0.009 -0.711 0.027 c -0.144 0.018 -0.234 0.029 -0.27 0.035 l 0 5.158 c 0.036 0.006 0.126 0.017 0.27 0.035 c 0.15 0.018 0.387 0.027 0.711 0.027 c 0.45 0 0.844 -0.06 1.18 -0.18 c 0.336 -0.126 0.618 -0.303 0.846 -0.531 c 0.228 -0.228 0.4 -0.504 0.514 -0.828 c 0.114 -0.33 0.17 -0.699 0.17 -1.107 c 0 -0.408 -0.056 -0.774 -0.17 -1.098 c -0.114 -0.324 -0.286 -0.6 -0.514 -0.828 c -0.228 -0.228 -0.51 -0.401 -0.846 -0.521 c -0.336 -0.126 -0.73 -0.189 -1.18 -0.189 z m 6.438 1 c 0.57 0 1.023 0.185 1.359 0.557 c 0.342 0.372 0.512 0.945 0.512 1.719 c 0 0.048 -0.002 0.097 -0.008 0.145 c 0 0.048 -0.004 0.093 -0.01 0.135 l -3.268 0 c 0.018 0.57 0.16 1.01 0.424 1.314 c 0.264 0.306 0.684 0.459 1.26 0.459 c 0.318 0 0.57 -0.03 0.756 -0.09 c 0.186 -0.06 0.322 -0.11 0.406 -0.152 l 0.107 0.504 c -0.084 0.048 -0.243 0.104 -0.477 0.17 c -0.228 0.066 -0.499 0.1 -0.811 0.1 c -0.408 0 -0.757 -0.06 -1.045 -0.18 c -0.288 -0.12 -0.525 -0.288 -0.711 -0.504 c -0.186 -0.216 -0.32 -0.472 -0.404 -0.766 c -0.084 -0.3 -0.127 -0.626 -0.127 -0.98 c 0 -0.408 0.058 -0.762 0.172 -1.063 c 0.12 -0.306 0.273 -0.562 0.459 -0.766 c 0.192 -0.204 0.408 -0.353 0.648 -0.449 c 0.246 -0.102 0.498 -0.152 0.756 -0.152 z m 0.008 0.521 c -0.21 0 -0.398 0.041 -0.566 0.125 c -0.162 0.084 -0.306 0.198 -0.432 0.342 c -0.12 0.138 -0.217 0.3 -0.289 0.486 c -0.066 0.186 -0.103 0.382 -0.115 0.586 l 2.664 0 c -0.012 -0.486 -0.128 -0.865 -0.344 -1.135 c -0.216 -0.27 -0.522 -0.404 -0.918 -0.404 z m 4.199 1.984 l 0.268 0 l 0 4.055 l -0.379 0 l 0 -3.475 c -0.043 0.047 -0.1 0.094 -0.17 0.145 c -0.066 0.051 -0.143 0.102 -0.229 0.152 c -0.086 0.047 -0.176 0.094 -0.27 0.141 c -0.094 0.043 -0.188 0.078 -0.281 0.105 l -0.111 -0.293 c 0.234 -0.082 0.444 -0.184 0.627 -0.309 c 0.183 -0.129 0.366 -0.303 0.545 -0.521 z" style="fill:#353535;fill-opacity:1"/>
</svg>
